X:1
T:Quoy? Clorinde, tu pars
T:Constantijn Huygens
T:Quoy? Clorinde, tu pars
C:Constantijn Huygens
%%score 1 2 { ( 3 4 ) | 5 }
L:1/8
Q:1/4=62
M:4/4
K:Ab
V:1 treble-8 nm="Tenor" snm="T"
V:2 treble transpose=-12 nm="Viola da Gamba" snm="V.Gam."
V:3 treble nm="Harpsichord" snm="Hpschd."
V:4 treble 
V:5 bass 
V:1
 z2 AB c2 cc | e4 z4 | z2 z =e f4 | z ccc d2 cB | A2 AA B4 | c8 | z2 AB c2 cc | e4 z4 | %8
w: Quoy? Clo- rin- de, tu|pars,|tu pars,|Et ne veux pas que mon|coeur s'en res- sen-|te?|Quoy? Clo- rin- de, tu|pars,|
 z2 z =e f4 | z ccc d2 cB | A2 AA B4 | c4 c4- | c2 GF =E4 |[M:3/4] A4 AA | B6 | c3 c B(A | %16
w: tu pars,|Et ne veux pas que mon|coeur s'en res- sen-|te? Par-|* donne au moins|à ma dou-|leur|re- cen- * te,|
[M:4/4] G4) B4- | B2 E2 z2 A2- | A2 GA A4 | z ccd e3 B | d4 z2 c2 | c2 d2 (e4 | =e4) f4 | %23
w: _ A|_ ces sou-|* pirs es- pars,|Qu'en son der- nier ef-|fort mon|a- me te|_ pre-|
 (f4 =e4) | f4 c4- | c2 GF =E4 |[M:3/4] A4 AA | B6 | c3 c B(A |[M:4/4] G4) B4- | B2 E2 z2 A2- | %31
w: sen- *|te. Par-|* donne au moins|à ma dou-|leur|re- cen- * te,|_ A|_ ces sou-|
 A2 GA A4 | z ccd e3 B | d4 z2 c2 | c2 d2 (e4 | =e4) f4 | (f4 =e4) | f8 |] %38
w: * pirs es- pars,|Qu'en son der- nier ef-|fort mon|a- me te|_ pre-|sen- *|te.|
V:2
 F8 | c4 C4- | C4 F4- | F4 B,2 C2 | D8 | C8 | F8 | c4 C4- | C4 F4- | F4 B,2 C2 | D8 | C4 c4 | %12
 =B4 c4 |[M:3/4] F6 | E6 | A,4 B,2 |[M:4/4] C4 G4 | A4 F4- | F2 E2 A,4 | A4 G2 _G2- | %20
 G2 F2 =E2 _E2 | =D2 _D2 C2 B,2 | A,2 G,2 F,4 | C8 | F4 c4 | =B4 c4 |[M:3/4] F6 | E6 | A,4 B,2 | %29
[M:4/4] C4 G4 | A4 F4- | F2 E2 A,4 | A4 G2 _G2- | G2 F2 =E2 _E2 | =D2 _D2 C2 B,2 | A,2 G,2 F,4 | %36
 C8 | F8 |] %38
V:3
 z2 FG A2 AA | c2 CD E2 EF | G2 [=EGc]2 [FAc]4 | z AAA B2 AG | [DFA]4 [DGB]4 | c2 AB c2 e/d/c/B/ | %6
 A2 FG A2 AA | c2 CD E2 EF | G2 [=EGc]2 [FAc]4 | z AAA B2 AG | [DFA]4 [DGB]4 | [=EGc]4 [C_EG]4 | %12
 [=B,=DG]4 [G,C=E]4 |[M:3/4] [A,CF]6 | [B,EG]6 | [CFA]4 [B,DF]2 |[M:4/4] [CEG]4 [B,DG]4 | %17
 [A,CE]4 z2 [CF]2- | [CF]2 [B,E]2 [A,CE]4 | [EAc]4 [EB]4 | [D_GB]4 [C=G]4 | [FB]4 [EGc]4 | %22
 [=EAc]4 [FAc]4 | [FAc]2 [FBd]2 [=EGc]2 [EGB]2 | [FAc]4 [CEG]4 | [=B,=DG]4 [G,C=E]4 | %26
[M:3/4] [A,CF]6 | [B,EG]6 | [CFA]4 [B,DF]2 |[M:4/4] [CEG]4 [B,DG]4 | [A,CE]4 z2 [CF]2- | %31
 [CF]2 [B,E]2 [A,CE]4 | [EAc]4 [EB]4 | [D_GB]4 [C=G]4 | [FB]4 [EGc]4 | [=EAc]4 [FAc]4 | %36
 [FAc]2 [FBd]2 [=EGc]2 [EGB]2 | [F=Ac]8 |] %38
V:4
 z2 C2 F2 [CF]2 | [EG]2 G,2 [G,C]2 [G,C]2 | [CE]2 C2 C4 | z2 F2 F2 E2 | x8 | [=EG]2 x6 | %6
 z2 C2 F2 [CF]2 | [EG]2 G,2 [G,C]2 [G,C]2 | [CE]2 C2 C4 | z2 F2 F2 E2 | x8 | x8 | x8 |[M:3/4] x6 | %14
 x6 | x6 |[M:4/4] x8 | x8 | x8 | x8 | x8 | x8 | x8 | x8 | x8 | x8 |[M:3/4] x6 | x6 | x6 | %29
[M:4/4] x8 | x8 | x8 | x8 | x8 | x8 | x8 | x8 | x8 |] %38
V:5
 F,8 | C4 C,4- | C,4 F,4- | F,4 B,,2 C,2 | D,8 | C,8 | F,8 | C4 C,4- | C,4 F,4- | F,4 B,,2 C,2 | %10
 D,8 | C,4 C4 | =B,4 C4 |[M:3/4] F,6 | E,6 | A,,4 B,,2 |[M:4/4] C,4 G,4 | A,4 F,4- | F,2 E,2 A,,4 | %19
 A,4 G,2 _G,2- | G,2 F,2 =E,2 _E,2 | =D,2 _D,2 C,2 B,,2 | A,,2 G,,2 F,,4 | C,8 | F,4 C4 | =B,4 C4 | %26
[M:3/4] F,6 | E,6 | A,,4 B,,2 |[M:4/4] C,4 G,4 | A,4 F,4- | F,2 E,2 A,,4 | A,4 G,2 _G,2- | %33
 G,2 F,2 =E,2 _E,2 | =D,2 _D,2 C,2 B,,2 | A,,2 G,,2 F,,4 | C,8 | F,8 |] %38

